!!! OTL: Berkowitz596
!!! Chapter: 1
!!! Section: V
!!! Page: 151
!!! Mode: 
!!! Encoder: AR
**kern
*staff1
=1-
!!pagebreak:original
*clefC4
*k[]
*C:
*M4/4
4D/
4G#/
8r
8D/
8G#/L
8A/J
=2
*M2/4
4c\
8A-/L
8F/J
=3
*M4/4
4D/
4G#/
8r
8An\
8F/L
8D-/J
=4
8BB/L
8F/J
4E-/
8E-/L
8A#/J
4B\
=5
4d\
8c\L
8A-\J
8B\
4G/
8D-/
=6
!!linebreak:original
8A-\
4G/
8C/
4F#/
4r
=7
4D/
4G#/
8r
8Gn/
8d\L
8d-\J
=8
2c\
4A-\
4r
=9
4B\
8B-\L
8G\J
8F#/
4C#/
8G#/
=10
2.D#/
4r
==
*-
